svgs/1F92A.svg

<svg xmlns="http://www.w3.org/2000/svg" xmlns:xlink="http://www.w3.org/1999/xlink" preserveAspectRatio="none" viewBox="0 0 72 72"><defs><path id="a" fill="#FCC21B" d="M36 5.6q-22.2 0-30.95 20.5Q.25 37.35.25 52.45q0 5.8 10.45 9.9 10.5 4.1 25.3 4.1t25.25-4.1q10.45-4.1 10.45-9.9 0-15.1-4.8-26.35Q58.2 5.6 36 5.6z"/><g id="b"><path fill="#FFF" d="M11.1 11.1Q13 9.2 13 6.5q0-2.7-1.9-4.6Q9.2 0 6.5 0 3.8 0 1.9 1.9 0 3.8 0 6.5q0 2.7 1.9 4.6Q3.8 13 6.5 13q2.7 0 4.6-1.9m.4-4.6q0 1.35-.95 2.3-.95.95-2.3.95-.46 0-.9-.1-.774-.224-1.4-.85Q5 7.85 5 6.5q0-1.35.95-2.3.626-.626 1.4-.85.44-.1.9-.1 1.35 0 2.3.95.95.95.95 2.3z"/><path fill="#2F2F2F" d="M10.55 8.8q.95-.95.95-2.3 0-1.35-.95-2.3-.95-.95-2.3-.95-.46 0-.9.1-.774.224-1.4.85Q5 5.15 5 6.5q0 1.35.95 2.3.626.626 1.4.85.44.1.9.1 1.35 0 2.3-.95z"/></g><g id="c"><path fill="#FFF" d="M9.7 27.55q-1.15 4.15 1 7.85 2.15 3.7 6.3 4.8 4.15 1.15 7.9-1 3.65-2.15 4.8-6.3 1.1-4.15-1.05-7.9-2.15-3.65-6.3-4.8-4.15-1.1-7.9 1-3.65 2.2-4.75 6.35M17 33.7q-.5 0-1.05-.15-1.65-.45-2.5-1.95-.9-1.5-.4-3.15.4-1.65 1.9-2.5 1.45-.85 3.1-.4.55.15 1.05.4.9.5 1.5 1.5.85 1.5.4 3.15-.45 1.65-1.9 2.55-1.05.6-2.1.55z"/><path fill="#2F2F2F" d="M15.95 33.55q.55.15 1.05.15 1.05.05 2.1-.55 1.45-.9 1.9-2.55.45-1.65-.4-3.15-.6-1-1.5-1.5-.5-.25-1.05-.4-1.65-.45-3.1.4-1.5.85-1.9 2.5-.5 1.65.4 3.15.85 1.5 2.5 1.95z"/></g><path id="d" fill="#2F2F2F" d="M51.6 41.15q-.2.05-3 .6-5.7 1.15-12.4 1.15-6.75 0-12.4-1.15-2.8-.55-3-.6-1.75-.15-2.9.6-1.6 1.1-.65 4.4.95 3.3 3.55 6.05 2.4 2.45 5.4 4 4.55 2.4 10 2.4t10-2.4q3-1.55 5.35-4 2.65-2.75 3.6-6.05.95-3.3-.7-4.4-1.1-.75-2.85-.6z"/><path id="e" fill="#D7598B" d="M40.1 41.5q-4.851 1.813-8.65 2.2v11.5-11.5l-10 1.35q.267.364 1.85 8.55 0 .1.05.2.15 1 .35 1.8.85 2.25 1.95 3.6 1 1.25 2.35 1.65 1.45.45 3.45.45 2.1 0 3.5-.45 1.35-.45 2.35-1.6 1.1-1.4 1.9-3.7.1-.5.25-1.1.05-.45.2-.85 1.65-9.1.45-12.1z"/><path id="f" fill="none" stroke="#2F2F2F" stroke-linecap="round" stroke-linejoin="round" stroke-width="2" d="M31.45 43.7v11.5"/></defs><use transform="matrix(.95303 -.25536 .25534 .95341 -10.45 9.85)" xlink:href="#a"/><use transform="matrix(.83878 .5875 -.58731 .83907 41.25 14.4)" xlink:href="#b"/><use transform="matrix(.99997 0 0 .99997 -.15 -.65)" xlink:href="#c"/><g transform="rotate(-15 25.443 47.396)"><use xlink:href="#d"/></g><g transform="translate(0 2)"><use xlink:href="#e"/><use xlink:href="#f"/></g></svg>

<svg xmlns="http://www.w3.org/2000/svg" version="1.1" xmlns:xlink="http://www.w3.org/1999/xlink" preserveAspectRatio="none" x="0px" y="0px" width="72px" height="72px" viewBox="0 0 72 72">
<defs>
<g id="Layer2_0_MEMBER_0_MEMBER_0_MEMBER_0_MEMBER_0_MEMBER_0_FILL">
<path fill="#FCC21B" stroke="none" d="
M 36 5.6
Q 13.8 5.6 5.05 26.1 0.25 37.35 0.25 52.45 0.25 58.25 10.7 62.35 21.2 66.45 36 66.45 50.8 66.45 61.25 62.35 71.7 58.25 71.7 52.45 71.7 37.35 66.9 26.1 58.2 5.6 36 5.6 Z"/>
</g>

<g id="Symbol_1_0_Layer0_0_FILL">
<path fill="#FFFFFF" stroke="none" d="
M 11.1 11.1
Q 13 9.2 13 6.5 13 3.8 11.1 1.9 9.2 0 6.5 0 3.8 0 1.9 1.9 0 3.8 0 6.5 0 9.2 1.9 11.1 3.8 13 6.5 13 9.2 13 11.1 11.1
M 11.5 6.5
Q 11.5 7.85 10.55 8.8 9.6 9.75 8.25 9.75 7.7892578125 9.75 7.35 9.65 6.57578125 9.42578125 5.95 8.8 5 7.85 5 6.5 5 5.15 5.95 4.2 6.57578125 3.57421875 7.35 3.35 7.7892578125 3.25 8.25 3.25 9.6 3.25 10.55 4.2 11.5 5.15 11.5 6.5 Z"/>

<path fill="#2F2F2F" stroke="none" d="
M 10.55 8.8
Q 11.5 7.85 11.5 6.5 11.5 5.15 10.55 4.2 9.6 3.25 8.25 3.25 7.7892578125 3.25 7.35 3.35 6.57578125 3.57421875 5.95 4.2 5 5.15 5 6.5 5 7.85 5.95 8.8 6.57578125 9.42578125 7.35 9.65 7.7892578125 9.75 8.25 9.75 9.6 9.75 10.55 8.8 Z"/>
</g>

<g id="Layer2_0_MEMBER_2_FILL">
<path fill="#FFFFFF" stroke="none" d="
M 9.7 27.55
Q 8.55 31.7 10.7 35.4 12.85 39.1 17 40.2 21.15 41.35 24.9 39.2 28.55 37.05 29.7 32.9 30.8 28.75 28.65 25 26.5 21.35 22.35 20.2 18.2 19.1 14.45 21.2 10.8 23.4 9.7 27.55
M 17 33.7
Q 16.5 33.7 15.95 33.55 14.3 33.1 13.45 31.6 12.55 30.1 13.05 28.45 13.45 26.8 14.95 25.95 16.4 25.1 18.05 25.55 18.6 25.7 19.1 25.95 20 26.45 20.6 27.45 21.45 28.95 21 30.6 20.55 32.25 19.1 33.15 18.05 33.75 17 33.7 Z"/>

<path fill="#2F2F2F" stroke="none" d="
M 15.95 33.55
Q 16.5 33.7 17 33.7 18.05 33.75 19.1 33.15 20.55 32.25 21 30.6 21.45 28.95 20.6 27.45 20 26.45 19.1 25.95 18.6 25.7 18.05 25.55 16.4 25.1 14.95 25.95 13.45 26.8 13.05 28.45 12.55 30.1 13.45 31.6 14.3 33.1 15.95 33.55 Z"/>
</g>

<g id="Layer0_0_FILL">
<path fill="#2F2F2F" stroke="none" d="
M 51.6 41.15
Q 51.4 41.2 48.6 41.75 42.9 42.9 36.2 42.9 29.45 42.9 23.8 41.75 21 41.2 20.8 41.15 19.05 41 17.9 41.75 16.3 42.85 17.25 46.15 18.2 49.45 20.8 52.2 23.2 54.65 26.2 56.2 30.75 58.6 36.2 58.6 41.65 58.6 46.2 56.2 49.2 54.65 51.55 52.2 54.2 49.45 55.15 46.15 56.1 42.85 54.45 41.75 53.35 41 51.6 41.15 Z"/>
</g>

<g id="Layer0_1_FILL">
<path fill="#D7598B" stroke="none" d="
M 40.1 41.5
Q 35.2490234375 43.312890625 31.45 43.7
L 31.45 55.2 31.45 43.7 21.45 45.05
Q 21.7169921875 45.4138671875 23.3 53.6 23.3 53.7 23.35 53.8 23.5 54.8 23.7 55.6 24.55 57.85 25.65 59.2 26.65 60.45 28 60.85 29.45 61.3 31.45 61.3 33.55 61.3 34.95 60.85 36.3 60.4 37.3 59.25 38.4 57.85 39.2 55.55 39.3 55.05 39.45 54.45 39.5 54 39.65 53.6 41.3 44.5 40.1 41.5 Z"/>
</g>

<path id="Layer0_1_1_STROKES" stroke="#2F2F2F" stroke-width="2" stroke-linejoin="round" stroke-linecap="round" fill="none" d="
M 31.45 43.7
L 31.45 55.2"/>
</defs>

<g id="_____1">
<g transform="matrix( 0.953033447265625, -0.2553558349609375, 0.255340576171875, 0.9534149169921875, -10.45,9.85) ">
<use xlink:href="#Layer2_0_MEMBER_0_MEMBER_0_MEMBER_0_MEMBER_0_MEMBER_0_FILL"/>
</g>

<g transform="matrix( 0.838775634765625, 0.5875091552734375, -0.587310791015625, 0.8390655517578125, 41.25,14.4) ">
<g id="Layer_1">
<g transform="matrix( 1, 0, 0, 1, 0,0) ">
<use xlink:href="#Symbol_1_0_Layer0_0_FILL"/>
</g>
</g>
</g>

<g transform="matrix( 0.999969482421875, 0, 0, 0.999969482421875, -0.15,-0.65) ">
<use xlink:href="#Layer2_0_MEMBER_2_FILL"/>
</g>
</g>

<g transform="matrix( 0.9659271240234375, -0.258819580078125, 0.258819580078125, 0.9659271240234375, -11.4,8.2) ">
<use xlink:href="#Layer0_0_FILL"/>
</g>

<g transform="matrix( 1, 0, 0, 1, 0,2) ">
<use xlink:href="#Layer0_1_FILL"/>

<use xlink:href="#Layer0_1_1_STROKES"/>
</g>
</svg>
